X:710
T:Des O'Conner
M:2/4
R:Polka
S:Castle Ceili Band
Z:m euritt
K:G
d2Bd c2Ac|B2G2 GGG2|A2D2 F2A2|G2D2 G2B2|\
d2Bd c2Ac|B2G2 GGG2|A2D2 F2A2|G4G4:|\
G2Bd g4|f2e2e4|F2Acf4|e2d2 d2B2|\
G2Bd g4|f2e2e4|f2ef a2f2|g4g4:|
